svgs/solid/farm.svg

<svg xmlns="http://www.w3.org/2000/svg" viewBox="0 0 576 512"><!-- Font Awesome Pro 6.0.0-alpha2 by @fontawesome - https://fontawesome.com License - https://fontawesome.com/license (Commercial License) --><path d="M221.5 91.136L221.875 90.886C209.595 26.947 144.719 -14.838 78.899 4.945C30.929 19.362 0 66.258 0 116.346L0 480.001C0 497.673 14.327 512 32 512H128V260.507C128 250.56 130.316 240.75 134.764 231.854L190.25 120.885C196.875 107.635 208 97.136 221.5 91.136ZM572.625 246.257L517.125 135.26C513.75 128.635 508.25 123.26 501.5 120.26L381 66.762C372.75 63.137 363.25 63.137 355 66.762L234.5 120.385C227.75 123.385 222.25 128.635 218.875 135.26L163.375 246.257C161.125 250.757 160 255.632 160 260.507V512H288V416.003H448V512H576V260.507C576 255.632 574.875 250.632 572.625 246.257ZM416 320.005H320V224.007H416V320.005Z"/></svg>

<svg xmlns="http://www.w3.org/2000/svg" viewBox="0 0 576 512"><!-- Font Awesome Pro 5.15.1 by @fontawesome - https://fontawesome.com License - https://fontawesome.com/license (Commercial License) --><path d="M221.5 91.08l.37-.17A111.93 111.93 0 0 0 0 112v400h128V260.54a64.35 64.35 0 0 1 6.76-28.63l55.48-111a64.12 64.12 0 0 1 31.26-29.83zm351.12 155.14l-55.49-111a32 32 0 0 0-15.62-14.93L381 66.76a32 32 0 0 0-26 0l-120.51 53.56a32 32 0 0 0-15.62 14.93l-55.49 111a32.08 32.08 0 0 0-3.38 14.29V512h128v-96h160v96h128V260.54a32.08 32.08 0 0 0-3.38-14.32zM416 320h-96v-96h96z"/></svg>
